img/robots/robots8.svg

<svg xmlns="http://www.w3.org/2000/svg" width="32" height="29.412" viewBox="0 0 32 29.412"><path fill="#231F20" d="M2.357 17.283l2.72.71-.234.9-2.72-.71.234-.9zm-.56 2.137l2.722.71.234-.9-2.72-.71-.236.9zm2.634 1.056l-2.72-.71-.236.9 2.722.71.235-.9zm-1.02-7.22l2.72.71.235-.9-2.72-.712-.236.9zm-.324 1.234l2.72.71.236-.9-2.72-.712-.236.902zm-.326 1.246l2.72.71.236-.898-2.72-.71-.236.898zm-.32 1.235l2.72.71.234-.9-2.72-.71-.235.9zM0 23.273l1.032.246.268-1.124 1.87.445-.27 1.124 1.033.247.52-2.18-3.933-.937-.52 2.18zm29.646-5.988l-2.723.71.235.9 2.722-.71-.234-.9zm.323 1.235l-2.722.71.235.9 2.72-.71-.234-.9zm-2.165 2.856l2.72-.71-.234-.9-2.72.71.235.9zm.552-9.02l-2.72.71.234.9 2.722-.71-.235-.9zm.32 1.235l-2.72.71.236.902 2.72-.71-.235-.9zm.327 1.244l-2.72.71.233.9 2.722-.71-.236-.9zm.322 1.235l-2.72.71.234.9 2.72-.71-.234-.9zm-1.262-5.566a1.73 1.73 0 0 0-3.38-.304c-.413-.582-1.048-.955-1.76-.955H9.076c-.71 0-1.346.374-1.76.956a1.728 1.728 0 1 0-.503 1.765v9.32c0 1.417 1.014 2.567 2.264 2.567h2.376V27.518h-1.373a.947.947 0 0 0 0 1.893H13.922v-4.456H18.08v4.457h3.845a.946.946 0 0 0 0-1.893H20.55v-3.665h2.376c1.25 0 2.264-1.15 2.264-2.568v-9.318a1.727 1.727 0 0 0 2.874-1.462zm3.416 10.59l-3.934.937.52 2.18 1.033-.246-.27-1.125 1.87-.446.27 1.125L32 23.27l-.52-2.18zM15.962 8.17h-6.76V5.188c0-2.864 2.004-5.186 4.478-5.186L15.963 0H16.04l2.28.002c2.474 0 4.478 2.322 4.478 5.186V8.17h-6.836zm-2.374-3.36h4.824a1.67 1.67 0 0 0 0-3.342H13.587a1.67 1.67 0 1 0 0 3.342zm1.05 2.785h2.724c.523 0 .945-.424.945-.947s-.422-.947-.945-.947h-2.726a.946.946 0 0 0 0 1.895zm-.474-5.404a.947.947 0 1 0 0 1.895.947.947 0 0 0 0-1.894zm3.673 1.895a.948.948 0 1 0 0-1.895.948.948 0 0 0 0 1.895z"/></svg>

<?xml version="1.0" encoding="utf-8"?>
<!-- Generator: Adobe Illustrator 16.0.4, SVG Export Plug-In . SVG Version: 6.00 Build 0)  -->
<!DOCTYPE svg PUBLIC "-//W3C//DTD SVG 1.1//EN" "http://www.w3.org/Graphics/SVG/1.1/DTD/svg11.dtd">
<svg version="1.1" id="Layer_1" xmlns="http://www.w3.org/2000/svg" xmlns:xlink="http://www.w3.org/1999/xlink" x="0px" y="0px"
	 width="32px" height="29.412px" viewBox="0 0 32 29.412" enable-background="new 0 0 32 29.412" xml:space="preserve">
<path fill="#231F20" d="M2.357,17.283l2.721,0.71l-0.235,0.901l-2.721-0.71L2.357,17.283z M1.798,19.42l2.721,0.711l0.235-0.901
	l-2.721-0.711L1.798,19.42z M4.431,20.476l-2.722-0.711l-0.235,0.9l2.722,0.712L4.431,20.476z M3.409,13.255l2.721,0.711
	l0.235-0.901l-2.721-0.711L3.409,13.255z M3.086,14.49l2.721,0.711l0.235-0.902l-2.721-0.711L3.086,14.49z M2.76,15.736l2.721,0.711
	l0.235-0.899l-2.721-0.711L2.76,15.736z M2.439,16.971l2.72,0.71l0.235-0.9l-2.72-0.71L2.439,16.971z M0,23.272l1.032,0.246
	L1.3,22.394l1.87,0.445l-0.269,1.125l1.032,0.247l0.52-2.18L0.52,21.093L0,23.272z M29.646,17.284l-2.723,0.711l0.235,0.9
	l2.722-0.711L29.646,17.284z M29.969,18.519l-2.721,0.711l0.235,0.9l2.721-0.711L29.969,18.519z M27.805,21.376l2.721-0.71
	l-0.235-0.901l-2.721,0.71L27.805,21.376z M28.357,12.356l-2.721,0.71l0.235,0.901l2.721-0.71L28.357,12.356z M28.678,13.591
	l-2.72,0.71l0.235,0.901l2.72-0.71L28.678,13.591z M29.004,14.834l-2.721,0.711l0.234,0.899l2.722-0.711L29.004,14.834z
	 M29.326,16.069l-2.721,0.711l0.235,0.901l2.721-0.711L29.326,16.069z M28.064,10.504c-0.101-0.949-0.951-1.638-1.9-1.538
	c-0.719,0.075-1.287,0.582-1.479,1.234c-0.414-0.582-1.049-0.955-1.76-0.955H17.66h-1.622h-0.077H14.34H9.074
	c-0.711,0-1.346,0.374-1.76,0.956c-0.19-0.653-0.759-1.16-1.478-1.235c-0.949-0.101-1.799,0.588-1.9,1.538
	c-0.1,0.949,0.588,1.799,1.538,1.899c0.508,0.053,0.985-0.12,1.337-0.437v9.318c0,1.418,1.013,2.568,2.263,2.568h2.376v1.103v2.563
	h-1.373c-0.523,0-0.947,0.424-0.947,0.945c0,0.523,0.423,0.948,0.947,0.948h1.373h1.374h1.098v-4.457h2.041h0.077h2.04v4.457h1.098
	h1.373h1.373c0.523,0,0.947-0.425,0.947-0.948c0-0.521-0.423-0.945-0.947-0.945H20.55v-2.563v-1.103h2.376
	c1.25,0,2.264-1.15,2.264-2.568v-9.318c0.352,0.317,0.83,0.49,1.336,0.437C27.477,12.303,28.164,11.452,28.064,10.504z
	 M31.48,21.093l-3.934,0.938l0.52,2.18l1.033-0.247l-0.27-1.125l1.87-0.445l0.271,1.125L32,23.272L31.48,21.093z M15.962,8.17h-6.76
	V5.188c0-2.864,2.004-5.186,4.478-5.186L15.963,0h0.005h0.065h0.006l2.281,0.002c2.474,0,4.478,2.322,4.478,5.186v2.983h-6.76
	h-0.006h-0.065V8.17H15.962z M13.588,4.81h2.374h0.077h2.374c0.922,0,1.671-0.748,1.671-1.671c0-0.923-0.748-1.671-1.671-1.671
	h-2.374h-0.077h-2.374c-0.922,0-1.671,0.748-1.671,1.671C11.917,4.062,12.665,4.81,13.588,4.81z M14.638,7.595h1.324h0.077h1.324
	c0.523,0,0.945-0.424,0.945-0.947s-0.422-0.947-0.945-0.947h-1.324h-0.077h-1.324c-0.523,0-0.946,0.424-0.946,0.947
	S14.115,7.595,14.638,7.595z M14.164,2.191c-0.523,0-0.947,0.424-0.947,0.947s0.424,0.947,0.947,0.947s0.947-0.424,0.947-0.947
	S14.687,2.191,14.164,2.191z M17.837,4.085c0.522,0,0.947-0.424,0.947-0.947s-0.425-0.947-0.947-0.947s-0.946,0.424-0.946,0.947
	S17.314,4.085,17.837,4.085z"/>
</svg>
